assets/Exclamation question mark/Flat/exclamation_question_mark_flat.svg

<svg width="32" height="32" viewBox="0 0 32 32" fill="none" xmlns="http://www.w3.org/2000/svg">
<path d="M5 20.6184C5 21.9327 6.12033 23 7.5 23C8.87967 23 10 21.9327 10 20.6085V4.38165C10 3.06729 8.87967 2 7.5 2C6.12033 2 5 3.06729 5 4.38165V20.6184Z" fill="#F8312F"/>
<path d="M17.5019 20.8626C17.5019 22.1648 18.5984 23.2221 19.9487 23.2221C21.2991 23.2221 22.3956 22.1648 22.3956 20.8528V19.1483C22.3956 19.0383 22.4678 18.9416 22.5721 18.9071C25.7772 17.8479 28 14.9172 28 11.5616V10.3084C28 6.0691 24.4668 2.53471 20.1213 2.4466C17.9384 2.39764 15.8774 3.19068 14.3139 4.65926C12.7605 6.12784 11.8975 8.10553 11.8975 10.2105C11.8975 11.5224 13.0041 12.5798 14.3545 12.5798C15.7048 12.5798 16.8013 11.5224 16.8013 10.2203C16.8013 9.39788 17.1364 8.62443 17.7455 8.04679C18.3547 7.46915 19.1568 7.15585 20.0198 7.17543C21.7255 7.21459 23.1063 8.62443 23.1063 10.3182V11.5616C23.1063 13.0302 22.0301 14.2932 20.5376 14.5575C18.7811 14.8708 17.5019 16.3492 17.5019 18.0723V20.8626Z" fill="#F8312F"/>
<path d="M19.9487 30C21.3294 30 22.4487 28.8807 22.4487 27.5C22.4487 26.1193 21.3294 25 19.9487 25C18.568 25 17.4487 26.1193 17.4487 27.5C17.4487 28.8807 18.568 30 19.9487 30Z" fill="#F8312F"/>
<path d="M10 27.5C10 28.8807 8.88071 30 7.5 30C6.11929 30 5 28.8807 5 27.5C5 26.1193 6.11929 25 7.5 25C8.88071 25 10 26.1193 10 27.5Z" fill="#F8312F"/>
</svg>

<svg xmlns="http://www.w3.org/2000/svg" width="32" height="32" fill="none"><path fill="#F8312F" d="M5 20.618C5 21.933 6.12 23 7.5 23s2.5-1.067 2.5-2.392V4.383C10 3.067 8.88 2 7.5 2S5 3.067 5 4.382v16.236ZM17.502 20.863c0 1.302 1.096 2.36 2.447 2.36 1.35 0 2.447-1.058 2.447-2.37v-1.705c0-.11.072-.206.176-.24 3.205-1.06 5.428-3.99 5.428-7.346v-1.254c0-4.239-3.533-7.773-7.879-7.861a8.164 8.164 0 0 0-5.807 2.212c-1.553 1.469-2.416 3.447-2.416 5.551 0 1.312 1.106 2.37 2.457 2.37 1.35 0 2.446-1.058 2.446-2.36 0-.822.335-1.596.945-2.173a3.17 3.17 0 0 1 2.274-.872c1.706.04 3.086 1.45 3.086 3.143v1.244c0 1.468-1.076 2.731-2.568 2.995-1.757.314-3.036 1.792-3.036 3.515v2.79ZM19.949 30a2.5 2.5 0 1 0 0-5 2.5 2.5 0 0 0 0 5ZM10 27.5a2.5 2.5 0 1 1-5 0 2.5 2.5 0 0 1 5 0Z"/></svg>
